!!!!SEGMENT: pl-wtm--r-2548--007_hertz-michal--jak-wam-sie-podoba-no-7.krn
!!!cenid: 18xx:3114
!!!COM: Hertz, Michał
!!!COM-rismID: pe41023359
!!!CDT: 1844/09/28-~1918
!!!CNT: Polish
!!!GTL: Jak wam się podoba
!!!OTL: No. 7
!!!OMV: 007
!!!PDT:
!!!AGN:
!!!SMS-siglum: PL-Wtm
!!!SMS-shelfmark: R 2548
!!!SMS-shelfwork: 001-007 G
!!!SMS-variant:
!!!SMS-altvar:
!!!NIFC-rismSourceID: 1001082244
!!!NIFC-rismChildID: 1001082244
!!!NIFC-islandoraID:
!!!URL-pdf-islandora:
!!!URL-scan:
!!!ONB-nifc:
!!!OMD: Allegretto pastorale.
!!!AIN: 1 piano
!!!key: C
**kern	**dynam
*I"[Piano]	*
*Ipiano	*
*ICklav	*
*clefG2	*
*k[]	*
*C:	*
*M6/8	*
*all\right	*
!	!LO:DY:rj
8cc\	f
=1	=1
([4.gg\	.
8gg\L]	.
8ee\	.
8aa\J)	.
=2	=2
8gg\	.
[4ee\	.
8ee\]	.
8r	.
!	!LO:DY:rj
8cc\	p
=3	=3
([4.gg\	.
8gg\L]	.
8ee\	.
8qbb/	.
8aa\J)	.
=4	=4
8gg\	.
[4ee\	.
8ee\]	.
8r	.
(>16ff\LL	f
16gg\JJ)	.
!!LO:LB:g=original
=5	=5
[4.ccc\	.
4ccc\]	.
8aa\	.
=6	=6
[4.gg\	.
8gg\]	.
16r	.
!	!LO:DY:rj
(16ee\LL	p
16ff\	.
16gg\JJ)	.
=7	=7
[4.ccc\	.
8ccc\]	.
8r	.
!LO:TUP:a:problem=klamra łukowa	!
24aa\LL	.
24bb\	.
24aa\JJ	.
=8	=8
[4.gg\	.
8gg\]	.
8r	.
8ee\	f
!!LO:LB:g=original
=9	=9
(8gg\L	.
8ee\)	.
8dd\J	.
8ee\	.
4cc\	.
=10	=10
(8ee\L	.
8cc\)	.
8b\J	.
8cc\	.
8.a/L	.
(32g/LL	.
32e/JJJ)	.
=11	=11
8d/	.
[4c/	.
8c/]	.
8r	.
(16d/LL	.
16e/JJ)	.
=12	=12
8g/	.
[4a/	.
8a/L]	.
8g/	.
8e/J	p
!!LO:LB:g=original
=13	=13
8d/	.
[4c/	.
8c/]	.
8r	.
(16d/LL	.
16e/JJ)	.
=14	=14
8g/	.
[4a/	.
(8a/L]	.
8g/)	.
8e/J	.
=15	=15
8d/	.
[4c/	.
8c/]	.
8r	.
!	!LO:DY:rj
(<16d/LL	f
16e/JJ)	.
=16	=16
(8d/L	.
8c/)	.
8e/J	.
(8d/L	.
8c/J)	.
16r	.
16ee\	.
!!LO:LB:g=original
=17	=17
(4.dd\	.
8cc\)	.
8.r	.
!	!LO:DY:rj
16e/	p
=18	=18
(4.d/	.
8c/)	.
8.r	.
16ee\	f
=19	=19
(8dd\L	.
8cc\)	.
[8g\J	.
8g\L]	.
8a\J	.
16r	.
!	!LO:DY:rj
16e/	p
=20	=20
(4.d/	.
8c/)	.
8r	.
8r	.
==	==
*-	*-
!!!RDF**kern: < = below
!!!RDF**kern: > = above
!!!ENC: Anastazja Marusiak
!!!END: 2021-11-03
!!!ENC: Marta Chmielewska
!!!END: 2021-11-05
!!!YEC: Copyright 2022 Narodowy Instytut Fryderyka Chopina (https://polishscores.org)
!!!YEM: License CC-BY-4.0 (https://creativecommons.org/licenses/by/4.0)
